X:648
T:The Generous Woman
C:O'Carolan
B:O'Neill's 648
Z: 1997 by John Chambers <jc@trillian.mit.edu>
N:collected by F.O'Neill.
M:C
L:1/8
K:D
(AB/c/) \
|d3e d2c2|B2A2 F2zA|d3c d2e2|f2z2 z2zA|
|d3e d2c2|cB2A2 F2zA|B3d c2e2|ed4 z2||
||DE/F/ \
|G3A B2AG|F3G AGFE|D3E F2A2|B2A2 z2 A2|
|d3e fedc|B3c cHd2AG|F3D FEDC|D4 z2|]
